X:1
T:Kilmarnock, CM
T:Kilmarnock, CM
T:Neil Dougall, 1831
T:Public Domain Courtesy of the Cyber Hymnal™
C:Neil Dougall, 1831
Z:Public Domain
Z:Courtesy of the Cyber Hymnal™
%%score ( 1 2 ) ( 3 4 )
L:1/8
Q:1/4=110
M:4/4
K:Eb
V:1 treble 
V:2 treble 
V:3 bass 
V:4 bass 
V:1
 [B,E]2 | [EG]2 [EB]2 [Ec]2 (BG) | [EG]2 [DF]2 E2 [Ec]2 | [EB]2 (ec) [EB]2 (EF) | %4
 ([EG]2 [DF]4) [EB]2 | [Ec]2 B2 [Ge]2 (GF) | E2 [DF]2 [EG]2 [Ec]2 | [EB]2 (EF) [EG]2 [DF]2 x | %8
 E6 |] %9
V:2
 x2 | x6 E2 | x4 E2 x2 | x2 E2 x E2 x | x8 | x2 (EA) x D2 x | E2 x6 | x2 E2 x5 | E6 |] %9
V:3
 [E,G,]2 | [E,B,]2 [G,B,]2 A,2 B,2 | z2 z A, [E,G,]2 A,2 | [G,B,]2 (G,A,) G,2 [C,=A,]2 | %4
 [B,,B,]6 [G,B,]2 | A,2 B,2 [E,B,]2 [D,=B,]2 | (CG,) [B,,B,]2 [E,B,]2 [A,,A,]2 | %7
 [G,,B,]2 [A,,C]2 B,3 z A, | [E,G,]6 |] %9
V:4
 x2 | x4 A,2 (G,E,) | B,3 (B,,2 x A,2) | x2 E,2 (E,D,) x2 | x8 | A,2 (G,F,) x4 | C,2 x6 | %7
 x4 B,,2 B,,2 x | x6 |] %9

